communicate/logo/logo-pomm.svg

<?xml version="1.0" encoding="UTF-8" standalone="no"?>
<svg width="1024px" height="1024px" viewBox="0 0 1024 1024" version="1.1" xmlns="http://www.w3.org/2000/svg" xmlns:xlink="http://www.w3.org/1999/xlink" xmlns:sketch="http://www.bohemiancoding.com/sketch/ns">
    <!-- Generator: Sketch 3.2.2 (9983) - http://www.bohemiancoding.com/sketch -->
    <title>logo-1024</title>
    <desc>Created with Sketch.</desc>
    <defs></defs>
    <g id="Page-1" stroke="none" stroke-width="1" fill="none" fill-rule="evenodd" sketch:type="MSPage">
        <g id="logo-1024" sketch:type="MSArtboardGroup">
            <g id="Logo" sketch:type="MSLayerGroup" transform="translate(70.000000, 2.000000)">
                <path d="M442.5,0.643176895 L295.204895,85.5427581 L737.090209,340.241502 L884.385314,255.341921 L442.5,0.643176895" id="Fill-1" fill="#6A5FA6" sketch:type="MSShapeGroup"></path>
                <path d="M442.5,1019.43445 L589.795105,934.534874 L589.795105,764.735711 L442.5,679.83613 L442.5,1019.43445" id="Fill-3" fill="#EB3889" sketch:type="MSShapeGroup"></path>
                <path d="M737.090209,340.241502 L737.090209,849.635292 L884.385314,764.735711 L884.385314,255.341921 L737.090209,340.241502" id="Fill-4" fill="#EB3889" sketch:type="MSShapeGroup"></path>
                <path d="M589.795105,934.534874 L737.090209,849.635292 L589.795105,764.735711 L589.795105,934.534874" id="Fill-5" fill="#403A76" sketch:type="MSShapeGroup"></path>
                <path d="M0.610983264,255.341921 L0.610983264,764.735711 L295.204895,934.534874 L295.204895,85.5427581 L0.610983264,255.341921" id="Fill-6" fill="#403A76" sketch:type="MSShapeGroup"></path>
                <path d="M295.204895,85.5427581 L295.204895,934.534874 L442.5,1019.43445 L442.5,679.83613 L737.090209,849.635292 L737.090209,340.241502 L295.204895,85.5427581" id="Fill-7" fill="#FFFFFF" sketch:type="MSShapeGroup"></path>
                <path d="M442.5,510.036968 L589.795105,594.936549 L589.795105,425.141083 L442.5,510.036968" id="Fill-8" fill="#403A76" sketch:type="MSShapeGroup"></path>
                <path d="M589.795105,425.141083 L442.5,340.241502 L295.204895,425.141083 L442.5,510.036968 L589.795105,425.141083" id="Fill-9" fill="#6A5FA6" sketch:type="MSShapeGroup"></path>
            </g>
        </g>
    </g>
</svg>

<svg xmlns="http://www.w3.org/2000/svg" viewBox="0 0 1024 1024">
  <style>
    .pomm-violet {fill: #403A76} .pomm-pink {fill: #EB3889} .pomm-lightviolet {fill: #6A5FA6} .pomm-white {fill: #ffffff}
  </style>
  <path d="M442.5.6432L295.205 85.5428 737.09 340.2415l147.295-84.8996L442.5.643" class="pomm-lightviolet"/>
  <path d="M442.5 1019.4344l147.295-84.8995V764.7354L442.5 679.836v339.5984m294.5902-679.193v509.394l147.295-84.8997V255.342l-147.295 84.8995" class="pomm-pink"/>
  <path d="M589.795 934.535l147.2952-84.8997-147.295-84.8996V934.535M.611 255.342v509.3937L295.205 934.535V85.5427L.611 255.3417" class="pomm-violet"/>
  <path d="M295.205 85.5428v848.992l147.295 84.8996V679.836l294.5902 169.7993V340.2415L295.205 85.5428" class="pomm-white"/>
  <path d="M442.5 510.037l147.295 84.8995V425.141L442.5 510.037" class="pomm-violet"/>
  <path d="M589.795 425.141L442.5 340.2416 295.205 425.141 442.5 510.037l147.295-84.896" class="pomm-lightviolet"/>
</svg>
